X: 16290
T: Griffith Morgan
R: reel
M: 4/4
K: Dmajor
|Ad dd dAFA|B2AF A2Bd|e2de f2ed|B2dB AFEF|
Addc dAFA|B2AF ABcd|e2de fedB|AFEF D2D2:|
Adef a2fa|a2fa aefa|fgga gfed|e2ef edBd|
Adef a2fa|a2fa agef|g2ga bagf|edef d2d2:|

